X: 10969
T: Drunk At Night And Dry In The Morning
R: waltz
M: 3/4
K: Dmajor
de|:f4 e2|fe de f2|A2 d2 ef|g2 f2 e2|
fe de f2|AG FG A2|B2 d2 c2|1 d4 de:|2 d4||
z2|d2 ab af|d2 ab af|d2 a2 a2|a3 g f2|
d2 ab af|d2 ab af|d2f2f2|f3 e de|
fe de f2|AG FG A2|B2 d2 ef|g2f2e2|
fe de f2|AG FG A2|B2 d2 c2|d4||
|:(3DEF|G2 BG BG|F2 AF AF|D2 d2 ef|g2 f2 e2|
[1 G2 BG BG|F2 AF AF|D2 d2 c2|d4:|
[2 fe de f2|AG FG A2|B2 d2 c2|d4||
z2|d2 b2 b2|d2 a2 a2|d2 a2 a2|a3 g f2|
d2 b2 b2|d2 a2 a2|d2 f2 f2|f3 e de|
fe de f2|AG FG A2|B2 d2 ef|g2 f2 e2|
fe de f2|AG FG A2|B2 d2 c2|d4||

